src/images/icon-api.svg

<?xml version="1.0" standalone="no"?><!-- Generator: Gravit.io --><svg xmlns="http://www.w3.org/2000/svg" xmlns:xlink="http://www.w3.org/1999/xlink" style="isolation:isolate" viewBox="255.748 767.619 41.779 40" width="41.779" height="40"><g><g><ellipse vector-effect="non-scaling-stroke" cx="286.9103268551107" cy="778.7391109640118" rx="2.958762660684272" ry="2.8328283282833127" fill="rgb(102,102,102)"/><path d=" M 297.469 804.409 L 295.694 787.619 L 297.469 770.829 C 297.505 770.659 297.524 770.483 297.524 770.303 L 297.526 770.293 C 297.526 769.572 297.225 768.917 296.74 768.436 C 296.231 767.933 295.52 767.619 294.734 767.619 L 294.723 767.62 C 294.535 767.62 294.352 767.639 294.175 767.672 L 276.637 769.373 L 259.099 767.673 C 258.921 767.64 258.738 767.621 258.551 767.621 L 258.54 767.619 C 257.753 767.619 257.042 767.933 256.534 768.436 C 256.048 768.918 255.748 769.572 255.748 770.293 L 255.749 770.303 C 255.749 770.483 255.768 770.659 255.805 770.829 L 257.579 787.619 L 255.805 804.409 C 255.769 804.579 255.75 804.755 255.749 804.935 L 255.748 804.946 C 255.748 805.667 256.048 806.32 256.534 806.802 C 257.042 807.306 257.753 807.619 258.54 807.619 L 258.551 807.618 C 258.739 807.617 258.921 807.599 259.099 807.565 L 276.637 805.866 L 294.175 807.565 C 294.352 807.599 294.535 807.617 294.723 807.617 L 294.734 807.619 C 295.536 807.619 296.257 807.293 296.768 806.773 C 297.237 806.296 297.527 805.652 297.527 804.946 L 297.525 804.937 C 297.524 804.755 297.505 804.579 297.469 804.409 Z  M 281.311 795.01 L 280.402 795.01 C 280.222 795.445 279.976 795.962 279.668 796.505 L 280.308 797.007 C 281.33 797.986 281.327 799.529 280.307 800.506 C 279.287 801.486 277.627 801.462 276.606 800.485 L 276.052 799.859 C 275.483 800.154 274.82 800.38 274.365 800.551 L 274.365 801.419 C 274.365 802.802 273.083 803.923 271.641 803.923 C 270.196 803.924 268.916 802.802 268.916 801.419 L 268.916 800.551 C 268.462 800.379 267.743 800.146 267.176 799.851 L 266.533 800.466 C 265.511 801.444 263.867 801.447 262.847 800.469 C 261.824 799.493 261.832 797.912 262.854 796.934 L 263.499 796.504 C 263.191 795.962 262.949 795.446 262.769 795.01 L 261.864 795.01 C 260.419 795.01 259.247 793.783 259.247 792.402 C 259.247 791.017 260.419 789.793 261.862 789.793 L 262.769 789.793 C 262.948 788.923 263.197 788.551 263.505 788.008 L 262.861 787.34 C 261.843 786.366 261.845 784.759 262.869 783.78 C 263.889 782.804 265.554 782.792 266.573 783.767 L 267.175 784.378 C 267.742 784.083 268.461 783.842 268.915 783.67 L 268.915 782.798 C 268.915 781.419 270.195 780.298 271.641 780.298 C 273.083 780.298 274.365 781.42 274.365 782.799 L 274.365 783.668 C 274.819 783.841 275.483 784.077 276.05 784.371 L 276.659 783.755 C 277.677 782.78 279.31 782.78 280.332 783.758 C 281.352 784.735 281.341 786.325 280.323 787.3 L 279.673 788.007 C 279.981 788.55 280.222 788.923 280.4 789.794 L 281.311 789.794 C 282.75 789.794 283.922 791.018 283.922 792.402 C 283.923 793.783 282.751 795.01 281.311 795.01 Z  M 294.423 783.28 C 293.744 784.314 292.318 784.622 291.24 783.972 L 290.614 783.594 C 289.772 784.184 288.767 784.582 287.668 784.708 L 287.48 785.419 C 287.167 786.602 285.909 787.318 284.676 787.018 C 283.438 786.72 282.692 785.517 283.005 784.334 L 283.202 783.591 C 282.358 782.999 281.671 782.206 281.221 781.281 L 280.4 781.333 C 279.128 781.413 278.028 780.489 277.944 779.274 C 277.86 778.055 278.824 777.003 280.095 776.923 L 280.944 776.87 C 281.27 775.917 281.839 775.065 282.587 774.383 L 282.267 773.619 C 281.794 772.485 282.371 771.199 283.556 770.747 C 284.738 770.293 286.081 770.846 286.554 771.979 L 286.867 772.731 C 287.943 772.722 288.963 772.976 289.858 773.434 L 290.477 772.939 C 291.457 772.159 292.915 772.287 293.729 773.224 C 294.545 774.162 294.41 775.555 293.431 776.336 L 292.854 776.798 C 293.028 777.287 293.139 777.806 293.177 778.346 C 293.212 778.865 293.178 779.372 293.082 779.861 L 293.701 780.234 C 294.78 780.883 295.101 782.249 294.423 783.28 Z " fill="rgb(102,102,102)"/><ellipse vector-effect="non-scaling-stroke" cx="271.5859249356109" cy="792.110044673349" rx="5.523552829272319" ry="5.288452884528851" fill="rgb(102,102,102)"/></g></g></svg>

<svg xmlns="http://www.w3.org/2000/svg" style="isolation:isolate" viewBox="255.75 767.62 41.78 40" width="41.78" height="40"><g fill="#666"><ellipse vector-effect="non-scaling-stroke" cx="286.91" cy="778.74" rx="2.96" ry="2.83"/><path d="M297.47 804.4l-1.78-16.78 1.78-16.8a2.61 2.61 0 0 0-.73-2.4c-.5-.49-1.22-.8-2-.8h-.02c-.19 0-.37.02-.55.05l-17.53 1.7-17.54-1.7a3 3 0 0 0-.55-.05h-.01c-.79 0-1.5.31-2 .82a2.6 2.6 0 0 0-.8 1.85v.01c0 .18.03.36.06.53l1.78 16.79-1.77 16.79a2.6 2.6 0 0 0-.06.52v.02c0 .72.3 1.37.78 1.85.51.5 1.22.82 2.01.82h.01a3 3 0 0 0 .55-.05l17.54-1.7 17.54 1.7c.17.03.36.05.54.05h.01c.8 0 1.53-.33 2.04-.85a2.6 2.6 0 0 0 .76-1.82v-.01c0-.19-.02-.36-.06-.53zm-16.16-9.39h-.9c-.19.44-.43.95-.74 1.5l.64.5a2.38 2.38 0 0 1 0 3.5 2.7 2.7 0 0 1-3.7-.02l-.56-.63c-.57.3-1.23.52-1.69.7v.86c0 1.38-1.28 2.5-2.72 2.5-1.44 0-2.72-1.12-2.72-2.5v-.87c-.46-.17-1.18-.4-1.74-.7l-.65.62a2.68 2.68 0 0 1-3.68 0 2.42 2.42 0 0 1 0-3.54l.65-.43c-.3-.54-.55-1.05-.73-1.49h-.9a2.65 2.65 0 0 1-2.62-2.6c0-1.4 1.17-2.62 2.61-2.62h.9c.19-.87.44-1.24.75-1.78l-.65-.67a2.45 2.45 0 0 1 0-3.56 2.71 2.71 0 0 1 3.71-.01l.6.6c.57-.29 1.3-.53 1.75-.7v-.87c0-1.38 1.27-2.5 2.72-2.5 1.44 0 2.73 1.12 2.73 2.5v.87c.45.17 1.11.4 1.68.7l.6-.62a2.67 2.67 0 0 1 3.68 0c1.02.99 1.01 2.58 0 3.55l-.66.7c.31.55.55.92.73 1.8h.91a2.65 2.65 0 0 1 2.61 2.6c0 1.38-1.17 2.61-2.6 2.61zm13.11-11.73a2.37 2.37 0 0 1-3.18.7l-.63-.39a6.4 6.4 0 0 1-2.94 1.12l-.19.7a2.32 2.32 0 0 1-2.8 1.6 2.2 2.2 0 0 1-1.68-2.68l.2-.74a6.08 6.08 0 0 1-1.98-2.3l-.82.04a2.28 2.28 0 0 1-2.46-2.06 2.24 2.24 0 0 1 2.16-2.35l.84-.05a6 6 0 0 1 1.65-2.49l-.32-.76a2.18 2.18 0 0 1 1.29-2.87c1.18-.46 2.52.1 3 1.23l.3.75c1.08 0 2.1.25 3 .7l.62-.5a2.38 2.38 0 0 1 3.25.3c.81.93.68 2.32-.3 3.1l-.58.47a5.83 5.83 0 0 1 .23 3.06l.62.37c1.08.65 1.4 2.02.72 3.05z"/><ellipse vector-effect="non-scaling-stroke" cx="271.59" cy="792.11" rx="5.52" ry="5.29"/></g></svg>
